X:1645
T:Young Edmond O'Neill
M:C|
L:1/8
B:O'Neill's 1645
N:"collected by J. O'Neill"
K:G
(3DEF \
| G2 F<G G2 F<G | G>FG>e d>BA>^G | A>Bc>d e>bg>e | d>^df>e d>^c=c>A |
| G2 F<G G2 F<G | G>FG>e d>BA>^G | A>Bc>d (3fed (3cBA | G>DB,>D G,2 |
| D2 \
| (3GAB D2 G>FE>D | E2 [E2e2] [E2e2] A>G | (3FGA A,2 F>EB,>C | D2 [D2d2] [D2d2] D2 |
| (3GAB D2 G>FE>D | [C2E2][G2e2] [F2d2] [E2c2] | (3Bge (3dBG (3DCB, | G,2 G2 G2 :|


:1646
T:The Supple Dancer
M:C|
L:1/8
B:O'Neill's 1646
N:"collected by J. O'Neill"
K:G
d>c \
| (3BdB G>B c>AF>A | a>fg>e d>cB>A | (3BdB G>B c>BA>G | F>Ad>f e>dc>A |
| (3BdB G>B c>AF>A | a>fg>e d>cB>A | (3BdB (3GAB c>AF>A | G2 B2G2 :|
|: B>c \
| d2 g2 f2 e2 | (3ded (3cBA G2 F2 | Eedc BAGF | AGFE D2 B>c |
| d2 g2 f2 e2 | (3ded (3cBA G2 F2 | Eedc BAGF | A2 G2 G2 :|


